X:1
T: The Autograph
C:
R:Reel
I:speed 232
Q:232
K:Bb
M:4/4
L:1/8
|:F2|Bd cB Ac BA|Bd f3F GA|Bd cB Ac BA|Bd f3d ef|
((3g^fg) eg ((3=f=ef) df|((3ede) ce ((3dcd) Bd|((3cBc) ((3dcB) ((3ABc) ((3FGA)|((3Bcd) ((3fga) b2:|
|:=B2|c2cA FAce|dBfd ((3bag) ((3fed)|((3cec) ((3AcA) FAce|dBfd ((3bag) ((3fed)|
ge BG ((3EGB) ((3egb)|fd BF ((3DFB) ((3dfb)|ge dc fd cA|B2d2 B2:|
